X:12
T:Jack Danielson's Reel
M:2/4
L:1/16
Z:jason
B:Bob Walters, 1949
K:A
FG | A2GB A2GA | BAGB AcBA | GABc defg | agaf edcB |
A2GB A2GA | BAGB AcBA | GABc defg | a2A2 A2 :|
|: AA | c'eae c'eae | c'ec'e c'eae | d'ebe d'ebe | d'ed'e d'ebe |
c'eae c'eae | c'ec'e c'eae |eagf edcB | Aceg a2 :|
|: AA | Acea c'aec | Acea c'aec | Bege befg | agfe dcBG |
Acea c'aec | Acea c'aec | Bege befg | a2(3(bag) a2 :|

